X:1
T:Thanks to God (Stebbins)
T:Thanks to God (Stebbins)
T:George Coles Stebbins (1856-1945)
T:Public Domain Courtesy of the Cyber Hymnal™
C:George Coles Stebbins (1856-1945)
Z:Public Domain
Z:Courtesy of the Cyber Hymnal™
%%score ( 1 2 ) ( 3 4 )
L:1/8
Q:1/4=105
M:3/4
K:Eb
V:1 treble 
V:2 treble 
V:3 bass 
V:4 bass 
V:1
 B>c | B2 G2 G>A | [EG]2 E2 [B,D]E | [DF]3 [EG] [EA][FB] [EG]4 B>c | B2 G2 G>A | %5
 [EG]2 [B,E]2 [CE][_DE] | [CE][FA] [EG]2 [DF]2 E4 B>B | [Ec]2 [CA]2 c>c | B2 G2 BG | %9
 [DF][FB] [Ed]2 [Ec]2 [DB]4 B>c | B2 G2 G>A | G2 E2 [CE][_CE] | [B,E][EA] [EG]2 [DF]2 | [B,E]4 |] %14
V:2
 E2 | E4 E2 | x6 | x10 E2 | E4 E2 | x6 | x10 E2 | x4 E2 | E4 E2 | x10 E2 | E4 _D2 | _D4 x2 | x6 | %13
 x4 |] %14
V:3
 G,>A, | G,2 B,2 B,>C | B,4 B,2 | [F,B,]3 [E,B,] [C,C][D,B,] [E,B,]4 G,>A, | G,2 B,2 B,>C | %5
 B,2 G,2 G,2 | [A,,A,][F,,C] B,2 A,2 [E,G,]4 [E,G,]2 | A,2 E,2 [A,,A,]2 | G,2 B,2 G,B, | %9
 B,D [F,G,]2 [F,,=A,]2 B,2 _A,2 G,>A, | G,2 B,2 B,>C | B,4 [A,,A,]2 | G,C B,2 [B,,A,]2 | [E,G,]4 |] %14
V:4
 E,2 | E,4 E,2 | E,2 G,2 A,G, | x10 E,2 | E,4 E,2 | E,4 C,B,, | x2 B,,4 x6 | A,,4 x2 | E,4 E,2 | %9
 F,2 x3 B,,4 E,2 x | E,4 E,2 | E,2 G,,2 x2 | B,,4 x2 | x4 |] %14

